pk/fullwidth.svg

<svg viewBox="0 0 48 48" fill="none" xmlns="http://www.w3.org/2000/svg" height="1em" width="1em">
  <path d="M42 6v36M17 19l-5 5m0 0 5 5m-5-5h24m-5-5 5 5m0 0-5 5M6 6v36" stroke="#000" stroke-width="4" stroke-linecap="round" stroke-linejoin="round"/>
</svg>

<svg viewBox="0 0 48 48" fill="none" xmlns="http://www.w3.org/2000/svg" height="1em" width="1em">
  <path d="M42 6V42M17 19L12 24M12 24L17 29M12 24H36M31 19L36 24M36 24L31 29M6 6L6 42" stroke="black" stroke-width="4" stroke-linecap="round" stroke-linejoin="round"/>
</svg>
